X:1
T:The Derry
R:reel
M:4/4
L:1/8
K:A
|:~c2cB ABcA|~B2cB AFEF|ABce ~a2ge|faec BcAB|
|~c2cB ABcA|~B2cA BAFA|1 ABce aecA|BcB2 A2AB:|2 ABce fece|fege ~a2ag|]
|:~f2cf afcf|geBe geag|~f2cf afcf|gfeg fefg|
|aAcB ABcA|~B2cA BAFA|1 ABce fece|fege ~a2ag:|2 ABce aecA|BcB2 A2AB|]